packages/kaspersky-hexa-ui-icons/src/iconsSVGs/16/TVSolid.svg

<svg width="16" height="16" viewBox="0 0 16 16" fill="none" xmlns="http://www.w3.org/2000/svg">
<path fill-rule="evenodd" clip-rule="evenodd" d="M0.902344 4.71689C0.902344 3.25334 2.08879 2.06689 3.55234 2.06689H12.1523C13.6159 2.06689 14.8023 3.25334 14.8023 4.71689V9.41703C14.8023 10.8806 13.6159 12.067 12.1523 12.067H10.1303L11.581 13.5177C11.8348 13.7716 11.8348 14.1831 11.581 14.437C11.3271 14.6908 10.9156 14.6908 10.6617 14.437L8.29181 12.067H7.41289L5.04297 14.437C4.78913 14.6908 4.37757 14.6908 4.12373 14.437C3.86989 14.1831 3.86989 13.7716 4.12373 13.5177L5.57441 12.067H3.55234C2.08879 12.067 0.902344 10.8806 0.902344 9.41703V4.71689Z" fill="black"/>
</svg>

<svg xmlns="http://www.w3.org/2000/svg" width="16" height="16" fill="none" viewBox="0 0 16 16"><path fill="#000" fill-rule="evenodd" d="M.9023 4.7169c0-1.4636 1.1865-2.65 2.65-2.65h8.6c1.4636 0 2.65 1.1864 2.65 2.65V9.417c0 1.4636-1.1864 2.65-2.65 2.65h-2.022l1.4507 1.4507a.6501.6501 0 0 1-.9193.9193l-2.3699-2.37h-.879l-2.3698 2.37a.65.65 0 0 1-.9193-.9193l1.4507-1.4507h-2.022c-1.4636 0-2.65-1.1864-2.65-2.65z"/></svg>
